X: 8929
T: Curraduff, The
R: jig
M: 6/8
K: Dmajor
FE|:DFA BAF|dAd BAF|DFA BAF|EFD CB,A,|DFA BAF|
dAd BAF|1 DFA BAF|EDC D/E/D E:|2 dcd BAF|EDC DFA||
|:B2 d edB|AFA fdA|E2 F GFE|F=F^F AFA|
B2 d edB|AFA fdA|E2 F GEC|1 EDC DFA:|2 EDC D3||

